X:272
T: TOCHTER ZION FREUE DICH
N: B0750
O: Europa, Mitteleuropa, Deutschland
R: Preis - Lied, religioes
M: 4/4
L: 1/8
K: Eb
 | B4G3A | B4E4 |
FGABA2G2 | F6z2 |
GABcB2B2 | e4B4 |
A2G2F3E | E6z2 |
GFGAG2G2 | F4E4 |
A2G2F2E2 | D6z2 |
c=Bcdc2d2 | e4c4 |
d2cB=A3B | B6z2

@@@ Tune index: 2490
